X: 4622
T: Bourrées
R: slide
M: 12/8
K: Gmajor
M:3/4
"1." (3DEF|G2 B2 A2|GA BG AB|c4 B2|A2 d2 D2|
G2 B2 A2|GA BG AB|cB AG (3FED|G4:|F2|
|:EF GA (3GFE|A2 GA GF|EF G2 A2|
EF GA (3GFE|A2 GA GF|1 (3EFG (3AB^c d2:|2 G2 z2||
"2." C2 B,2|:A,2 A,C B,A,|E3E EF|GF EA GF|GF ED B,C|
A,2 A,C B,A,|E3E EF|GF EA GF|1 E2 ED CB,:|2 E2 A2 B2|
|:c2 E2 c2|=F4 AB|cA dc BA|^G2 A2 B2|
c2 E2 c2|=F4 AB|(3cBA dc B^G|1 A3 A AB:|2 A2||
"3." z2|:E2|A^G AB cd|e4 g2|fg a2 g2|f2 ed Bc|
A^G AB cd|e4 g2|fg a2 a2|a4:|
|:e2|ae =fe d2|de =fe d2|c2 A2 A2|^G2 E2 e2|
ae =fe d2|de =fe d2|cd AB ^GB|A4:|
"4." A2|AG F2 G2|A4 B2|AG F2 E2|F2 D2 A2|
AG F2 G2|A4 B2|AG F2 E2|D4:|
|:E2|F4 G2|E4 A2|AG F2 E2|F2 D2 E2|
F4 G2|E4 A2|AG F2 E2|F2 D2 E2|D4:|

